svg/N_Arrows/31.svg

<?xml version="1.0" encoding="UTF-8" standalone="no"?>
<!-- Created with Inkscape (http://www.inkscape.org/) -->
<svg
   xmlns:dc="http://purl.org/dc/elements/1.1/"
   xmlns:cc="http://web.resource.org/cc/"
   xmlns:rdf="http://www.w3.org/1999/02/22-rdf-syntax-ns#"
   xmlns:svg="http://www.w3.org/2000/svg"
   xmlns="http://www.w3.org/2000/svg"
   xmlns:sodipodi="http://sodipodi.sourceforge.net/DTD/sodipodi-0.dtd"
   xmlns:inkscape="http://www.inkscape.org/namespaces/inkscape"
   width="744.09448819"
   height="1052.3622047"
   id="svg2"
   sodipodi:version="0.32"
   inkscape:version="0.44.1"
   sodipodi:docbase="F:\QGIS_N_ARROWS\TOT"
   sodipodi:docname="FINALE.svg"
   inkscape:export-filename="F:\QGIS_N_ARROWS\TOT\FINALE.png"
   inkscape:export-xdpi="300"
   inkscape:export-ydpi="300">
  <defs
     id="defs4" />
  <sodipodi:namedview
     id="base"
     pagecolor="#ffffff"
     bordercolor="#666666"
     borderopacity="1.0"
     inkscape:pageopacity="0.0"
     inkscape:pageshadow="2"
     inkscape:zoom="0.7"
     inkscape:cx="-82.857143"
     inkscape:cy="496.99199"
     inkscape:document-units="px"
     inkscape:current-layer="layer1"
     showgrid="true"
     inkscape:window-width="1280"
     inkscape:window-height="744"
     inkscape:window-x="-4"
     inkscape:window-y="-4" />
  <metadata
     id="metadata7">
    <rdf:RDF>
      <cc:Work
         rdf:about="">
        <dc:format>image/svg+xml</dc:format>
        <dc:type
           rdf:resource="http://purl.org/dc/dcmitype/StillImage" />
      </cc:Work>
    </rdf:RDF>
  </metadata>
  <g
     inkscape:label="Livello 1"
     inkscape:groupmode="layer"
     id="layer1">
    <g
       id="g3079"
       transform="translate(643.7143,-80)">
      <g
         transform="matrix(0,0.937717,-0.916227,0,110.5587,102.3902)"
         id="g5068">
        <path
           style="fill:black;fill-opacity:1;fill-rule:evenodd;stroke:black;stroke-width:1px;stroke-linecap:butt;stroke-linejoin:miter;stroke-opacity:1"
           d="M 507.23536,651.86218 L 464.02108,609.36218 L 495.44965,626.1479 L 508.30679,504.36218 L 507.23536,651.86218 z "
           id="path5062" />
        <path
           style="fill:black;fill-opacity:1;fill-rule:evenodd;stroke:black;stroke-width:1px;stroke-linecap:butt;stroke-linejoin:miter;stroke-opacity:1"
           d="M 508.10267,651.86218 L 551.31695,609.36218 L 519.88838,626.1479 L 507.03124,504.36218 L 508.10267,651.86218 z "
           id="path5066" />
      </g>
      <g
         transform="matrix(0.916227,0,0,0.937717,-775.0713,146.4309)"
         id="g5074">
        <path
           style="fill:black;fill-opacity:1;fill-rule:evenodd;stroke:black;stroke-width:1px;stroke-linecap:butt;stroke-linejoin:miter;stroke-opacity:1"
           d="M 507.23536,651.86218 L 464.02108,609.36218 L 495.44965,626.1479 L 508.30679,504.36218 L 507.23536,651.86218 z "
           id="path5076" />
        <path
           style="fill:black;fill-opacity:1;fill-rule:evenodd;stroke:black;stroke-width:1px;stroke-linecap:butt;stroke-linejoin:miter;stroke-opacity:1"
           d="M 508.10267,651.86218 L 551.31695,609.36218 L 519.88838,626.1479 L 507.03124,504.36218 L 508.10267,651.86218 z "
           id="path5078" />
      </g>
      <g
         transform="matrix(0,-0.937717,0.916227,0,-731.3265,1055.339)"
         id="g5080">
        <path
           sodipodi:nodetypes="ccccc"
           style="fill:black;fill-opacity:1;fill-rule:evenodd;stroke:black;stroke-width:1px;stroke-linecap:butt;stroke-linejoin:miter;stroke-opacity:1"
           d="M 507.23536,651.86218 L 464.02108,609.36218 L 495.44965,626.1479 L 508.30679,506.70096 L 507.23536,651.86218 z "
           id="path5082" />
        <path
           sodipodi:nodetypes="ccccc"
           style="fill:black;fill-opacity:1;fill-rule:evenodd;stroke:black;stroke-width:1px;stroke-linecap:butt;stroke-linejoin:miter;stroke-opacity:1"
           d="M 508.10267,651.86218 L 551.31695,609.36218 L 519.88838,626.1479 L 507.03124,506.31117 L 508.10267,651.86218 z "
           id="path5084" />
      </g>
      <g
         transform="matrix(-0.916227,0,0,-0.937717,156.1345,1004.885)"
         id="g5086">
        <path
           style="fill:black;fill-opacity:1;fill-rule:evenodd;stroke:black;stroke-width:1px;stroke-linecap:butt;stroke-linejoin:miter;stroke-opacity:1"
           d="M 507.23536,651.86218 L 464.02108,609.36218 L 495.44965,626.1479 L 508.30679,504.36218 L 507.23536,651.86218 z "
           id="path5088" />
        <path
           style="fill:black;fill-opacity:1;fill-rule:evenodd;stroke:black;stroke-width:1px;stroke-linecap:butt;stroke-linejoin:miter;stroke-opacity:1"
           d="M 508.10267,651.86218 L 551.31695,609.36218 L 519.88838,626.1479 L 507.03124,504.36218 L 508.10267,651.86218 z "
           id="path5090" />
      </g>
      <flowRoot
         transform="translate(-653.6687,65.6688)"
         style="font-size:56px;font-family:Arial Black"
         id="flowRoot6986"
         xml:space="preserve"><flowRegion
           id="flowRegion6988"><rect
             style="font-size:56px;font-family:Arial Black"
             y="270.93362"
             x="321.42856"
             height="74.285713"
             width="68.571426"
             id="rect6990" /></flowRegion><flowPara
           id="flowPara6992">N</flowPara></flowRoot>      <flowRoot
         transform="translate(-867.4188,278.8111)"
         style="font-size:56px;font-family:Arial Black"
         id="flowRoot6994"
         xml:space="preserve"><flowRegion
           id="flowRegion6996"><rect
             style="font-size:56px;font-family:Arial Black"
             y="270.93362"
             x="321.42856"
             height="74.285713"
             width="68.571426"
             id="rect6998" /></flowRegion><flowPara
           id="flowPara7000">W</flowPara></flowRoot>      <flowRoot
         transform="translate(-653.4726,488.7089)"
         style="font-size:56px;font-family:Arial Black"
         id="flowRoot7002"
         xml:space="preserve"><flowRegion
           id="flowRegion7004"><rect
             style="font-size:56px;font-family:Arial Black"
             y="270.93362"
             x="321.42856"
             height="74.285713"
             width="68.571426"
             id="rect7006" /></flowRegion><flowPara
           id="flowPara7008">S</flowPara></flowRoot>      <flowRoot
         transform="translate(-453.2999,281.8415)"
         style="font-size:56px;font-family:Arial Black"
         id="flowRoot2798"
         xml:space="preserve"><flowRegion
           id="flowRegion2800"><rect
             style="font-size:56px;font-family:Arial Black"
             y="270.93362"
             x="321.42856"
             height="74.285713"
             width="68.571426"
             id="rect2802" /></flowRegion><flowPara
           id="flowPara2804">E</flowPara></flowRoot>      <rect
         y="539.87506"
         x="-345.14841"
         height="72.920319"
         width="72.688103"
         id="rect2190"
         style="opacity:0.97000002;fill:none;fill-opacity:1;stroke:black;stroke-width:11.47000217;stroke-linecap:square;stroke-linejoin:miter;stroke-miterlimit:4;stroke-dasharray:none;stroke-opacity:1" />
    </g>
  </g>
</svg>

<svg xmlns="http://www.w3.org/2000/svg" viewBox="0 0 744.09 1052.36" xmlns:xlink="http://www.w3.org/1999/xlink"><defs><path id="0" d="m507.24 651.86l-43.21-42.5 31.429 16.786 12.857-121.79-1.071 147.5z" stroke="#000" fill-rule="evenodd"/><path id="1" d="m321.43 270.93h68.57v74.28h-68.57z"/></defs><g transform="translate(643.71-80)"><g transform="matrix(0 .93772-.91623 0 110.56 102.39)"><use xlink:href="#0"/><path d="m508.1 651.86l43.21-42.5-31.429 16.786-12.857-121.79 1.071 147.5z" fill-rule="evenodd" stroke="#000"/></g><g transform="matrix(.91623 0 0 .93772-775.07 146.43)"><use xlink:href="#0"/><path d="m508.1 651.86l43.21-42.5-31.429 16.786-12.857-121.79 1.071 147.5z" fill-rule="evenodd" stroke="#000" id="2"/></g><g transform="matrix(0-.93772.91623 0-731.33 1055.34)" fill-rule="evenodd" stroke="#000"><path d="m507.24 651.86l-43.21-42.5 31.429 16.786 12.857-119.45-1.071 145.16z"/><path d="m508.1 651.86l43.21-42.5-31.429 16.786-12.857-119.84 1.071 145.55z"/></g><g transform="matrix(-.91623 0 0-.93772 156.13 1004.88)"><use xlink:href="#0"/><use xlink:href="#2"/></g><g font-family="Arial Black" font-size="56"><flowRoot transform="translate(-653.67 65.67)"><flowRegion><use xlink:href="#1"/></flowRegion><flowPara>N</flowPara></flowRoot><flowRoot transform="translate(-867.42 278.81)"><flowRegion><use xlink:href="#1"/></flowRegion><flowPara>W</flowPara></flowRoot><flowRoot transform="translate(-653.47 488.71)"><flowRegion><use xlink:href="#1"/></flowRegion><flowPara>S</flowPara></flowRoot><flowRoot transform="translate(-453.3 281.84)"><flowRegion><use xlink:href="#1"/></flowRegion><flowPara>E</flowPara></flowRoot></g><path opacity=".97" fill="none" stroke="#000" stroke-linecap="square" stroke-width="11.47" d="m-345.15 539.87h72.69v72.92h-72.69z"/></g></svg>
